papirus/32x32/apps/eid-viewer.svg

<?xml version="1.0" encoding="UTF-8" standalone="no"?>
<svg
   xmlns:dc="http://purl.org/dc/elements/1.1/"
   xmlns:cc="http://creativecommons.org/ns#"
   xmlns:rdf="http://www.w3.org/1999/02/22-rdf-syntax-ns#"
   xmlns:svg="http://www.w3.org/2000/svg"
   xmlns="http://www.w3.org/2000/svg"
   xmlns:sodipodi="http://sodipodi.sourceforge.net/DTD/sodipodi-0.dtd"
   xmlns:inkscape="http://www.inkscape.org/namespaces/inkscape"
   id="svg2"
   version="1.1"
   viewBox="0 0 32 32"
   inkscape:version="0.91 r13725"
   sodipodi:docname="eid-viewer.svg"
   width="32"
   height="32">
  <defs
     id="defs20" />
  <sodipodi:namedview
     pagecolor="#474747"
     bordercolor="#666666"
     borderopacity="1"
     objecttolerance="10"
     gridtolerance="10"
     guidetolerance="10"
     inkscape:pageopacity="0"
     inkscape:pageshadow="2"
     inkscape:window-width="1600"
     inkscape:window-height="843"
     id="namedview18"
     showgrid="false"
     inkscape:zoom="15.07"
     inkscape:cx="15.855504"
     inkscape:cy="14.608414"
     inkscape:window-x="0"
     inkscape:window-y="0"
     inkscape:window-maximized="1"
     inkscape:current-layer="svg2">
    <inkscape:grid
       type="xygrid"
       id="grid4148" />
  </sodipodi:namedview>
  <metadata
     id="metadata83">
    <rdf:RDF>
      <cc:Work
         rdf:about="">
        <dc:format>image/svg+xml</dc:format>
        <dc:type
           rdf:resource="http://purl.org/dc/dcmitype/StillImage" />
        <dc:title></dc:title>
      </cc:Work>
    </rdf:RDF>
  </metadata>
  <path
     inkscape:connector-curvature="0"
     id="rect29"
     d="M 3.4,7 28.6,7 C 29.3483,7 30,7.651672 30,8.4 l 0,15.2 C 30,24.3483 29.348328,25 28.6,25 L 3.4,25 C 2.6517,25 2,24.3483 2,23.6 L 2,8.4 C 2,7.6517 2.651672,7 3.4,7 Z"
     style="fill:#cccccc;fill-opacity:1"
     sodipodi:nodetypes="sssssssss" />
  <path
     sodipodi:nodetypes="ccsccccccccccc"
     style="opacity:0.2;fill:#000000;fill-opacity:1"
     inkscape:connector-curvature="0"
     d="m 24.907082,10 c 2.285571,5.43e-4 2.085836,2.444987 2.085836,2.444987 l 0,2.138753 C 26.992918,15.370502 26.000912,17 26.000912,17 l 0,1.5 L 28,19.427563 28,21 20,21 20,19.427563 21.996554,18.5 l 0,-1.5 c 0,0 -0.994879,-1.627869 -0.98934,-2.41626 l 0,-2.138753 c 0,0 -0.199999,-2.444443 2.085572,-2.444986"
     id="path33" />
  <path
     id="path35"
     d="M 5,18 3,16 5,14 Z"
     inkscape:connector-curvature="0"
     style="fill:#289b36;fill-opacity:1" />
  <path
     id="rect3574"
     d="m 6.875,13 5.25,0 C 12.569141,13 13,13.49241 13,14 l 0,4 c 0,0.50759 -0.430859,1 -0.875,1 l -5.25,0 C 6.4308587,19 6,18.50759 6,18 l 0,-4 c 0,-0.50759 0.4308587,-1 0.875,-1 z"
     inkscape:connector-curvature="0"
     style="fill:#ecb64e;fill-opacity:1" />
  <path
     inkscape:connector-curvature="0"
     id="path4009"
     style="opacity:0.1;enable-background:new"
     d="M 28.6,8 C 29.3756,8 30,8.6244 30,9.4 L 30,16 2,16 2,9.4 C 2,8.6244 2.6244,8 3.4,8 Z"
     sodipodi:nodetypes="ssccsss" />
  <path
     style="fill:#000000;fill-opacity:1;opacity:0.3"
     d="M 2 22.599609 L 2 23.599609 C 2 24.347909 2.6520906 25 3.4003906 25 L 28.599609 25 C 29.347937 25 30 24.347909 30 23.599609 L 30 22.599609 C 30 23.347909 29.347937 24 28.599609 24 L 3.4003906 24 C 2.6520906 24 2 23.347909 2 22.599609 z "
     id="path4254" />
  <g
     id="g4259"
     transform="translate(0,-0.04999962)">
    <circle
       transform="matrix(0,-1,1,0,0,0)"
       r="6"
       cy="14"
       cx="-16.067999"
       id="path4366"
       style="fill:#484848" />
    <rect
       transform="matrix(0.70710678,-0.70710678,0.70710678,0.70710678,0,0)"
       x="-2.9622965"
       y="24.761286"
       width="3"
       height="8"
       ry="1.4545453"
       rx="1.5"
       id="rect4368"
       style="fill:#484848" />
    <path
       inkscape:connector-curvature="0"
       d="m 11.878678,14.872657 c -1.180303,1.180302 -1.178944,3.063695 10e-7,4.24264 1.178903,1.178903 3.062338,1.180304 4.24264,10e-7 1.180303,-1.180303 1.178945,-3.063696 0,-4.242641 -1.178945,-1.178945 -3.062338,-1.180303 -4.242641,0 z"
       style="color:#000000;opacity:0.2;fill:#000000;fill-opacity:1;stroke-width:1.55499995"
       id="path4247" />
    <path
       id="path3430"
       style="color:#000000;fill:#5d99ff;stroke-width:1.55499995"
       d="m 11.878678,13.946679 c -1.180303,1.180302 -1.178944,3.063695 10e-7,4.24264 1.178903,1.178903 3.062338,1.180304 4.24264,10e-7 1.180303,-1.180303 1.178945,-3.063696 0,-4.242641 -1.178945,-1.178945 -3.062338,-1.180303 -4.242641,0 z"
       inkscape:connector-curvature="0" />
  </g>
  <path
     style="fill:#ffffff;fill-opacity:1;opacity:0.2"
     d="M 3.4003906 7 C 2.6520626 7 2 7.6520906 2 8.4003906 L 2 9.4003906 C 2 8.6520906 2.6520626 8 3.4003906 8 L 28.599609 8 C 29.347909 8 30 8.6520626 30 9.4003906 L 30 8.4003906 C 30 7.6520626 29.347909 7 28.599609 7 L 3.4003906 7 z "
     id="path4249" />
</svg>

<?xml version="1.0" encoding="UTF-8" standalone="no"?>
<svg id="svg2" xmlns:rdf="http://www.w3.org/1999/02/22-rdf-syntax-ns#" xmlns="http://www.w3.org/2000/svg" height="32" width="32" version="1.1" xmlns:cc="http://creativecommons.org/ns#" viewBox="0 0 32 32" xmlns:dc="http://purl.org/dc/elements/1.1/">
 <metadata id="metadata83">
  <rdf:RDF>
   <cc:Work rdf:about="">
    <dc:format>image/svg+xml</dc:format>
    <dc:type rdf:resource="http://purl.org/dc/dcmitype/StillImage"/>
    <dc:title/>
   </cc:Work>
  </rdf:RDF>
 </metadata>
 <path id="rect29" fill="#ccc" d="m3.4 7h25.2c0.748 0 1.4 0.6517 1.4 1.4v15.2c0 0.748-0.652 1.4-1.4 1.4h-25.2c-0.7483 0-1.4-0.652-1.4-1.4v-15.2c0-0.7483 0.6517-1.4 1.4-1.4z"/>
 <path id="path33" opacity=".2" d="m24.907 10c2.2856 0.000543 2.0858 2.445 2.0858 2.445v2.1388c0 0.787-0.992 2.416-0.992 2.416v1.5l1.999 0.928v1.572h-8v-1.572l1.997-0.928v-1.5s-0.99488-1.6279-0.98934-2.4163v-2.1388s-0.2-2.4444 2.0856-2.445"/>
 <path id="path35" fill="#289b36" d="m5 18-2-2 2-2z"/>
 <path id="rect3574" fill="#ecb64e" d="m6.875 13h5.25c0.444 0 0.875 0.492 0.875 1v4c0 0.50759-0.43086 1-0.875 1h-5.25c-0.4441 0-0.875-0.492-0.875-1v-4c0-0.50759 0.43086-1 0.875-1z"/>
 <path id="path4254" opacity=".2" d="m2 23.6v1c0 0.748 0.6521 1.4 1.4004 1.4h25.2c0.748 0 1.4-0.652 1.4-1.4v-1c0 0.748-0.652 1.4-1.4 1.4h-25.2c-0.7479 0-1.4-0.652-1.4-1.4z"/>
 <g id="g4259" transform="translate(0 -0.05)">
  <circle id="path4366" cx="-16.068" transform="rotate(-90)" cy="14" r="6" fill="#484848"/>
  <rect id="rect4368" transform="rotate(-45)" rx="1.5" ry="1.4545" height="8" width="3" y="24.761" x="-2.9623" fill="#484848"/>
  <path id="path4247" opacity=".2" style="color:#000000" d="m11.879 14.873c-1.1803 1.1803-1.1789 3.0637 0.000001 4.2426s3.0623 1.1803 4.2426 0.000001 1.1789-3.0637 0-4.2426-3.0623-1.1803-4.2426 0z" stroke-width="1.555"/>
  <path id="path3430" style="color:#000000" stroke-width="1.555" fill="#5d99ff" d="m11.879 13.947c-1.1803 1.1803-1.1789 3.0637 0.000001 4.2426s3.0623 1.1803 4.2426 0.000001 1.1789-3.0637 0-4.2426-3.0623-1.1803-4.2426 0z"/>
 </g>
 <path id="path4249" opacity=".2" d="m3.4004 7c-0.7483 0-1.4004 0.6521-1.4004 1.4004v1c0-0.7483 0.6521-1.4004 1.4004-1.4004h25.2c0.748 0 1.4 0.6521 1.4 1.4004v-1c0-0.7483-0.652-1.4004-1.4-1.4004h-25.2z" fill="#fff"/>
</svg>
